X:26
T:Bunker Hill
R:Reel
P:APB Brendan Mulvihill
D:Brendan Mulvihill:The Flax in Bloom
S:Brendan Mulvihill:The Flax in Bloom
Z:Transcription, chords:Mike Long
M:C|
L:1/8
K:G
cA|:\
"C"GE~E2 "D"D3D|"C"(3(EFG) AB c2Bc|"D"ABAG "C"EG~G2|"C"ABcA "G"d2cA:|\
"C"Gc~c2 ec~c2|
"C"Gc~c2 "G"cBAG|"D"Ad~d2 fd~d2|"D"Ad~d2 "G"dcAG|\
"C"FGAB (3(cBA) dB|(3(cBA) dB c2Bc|
"D"(3(dcB) (3(cBA) "G"BGAG|"C"(3(EFG) ABc2|]\
ag|\
"D"fd~d2 fdad|fd~d2 a2gf|"C"ge~e2 gbef|
"C"gbeg "G"b2ag|\
"D"fd~d2 dcAB|"D"(3(cBA) dB "C"c2Bc|"D"(3(dcB) (3(cBA) "G"BGAG|"C"(3(EFG) ABc2|]
